localPackages/DesignSystem/Sources/DesignSystem/Resources/Assets.xcassets/IconSet/ic-presentation-screen.imageset/ic-presentation-screen.svg

<svg width="24" height="24" viewBox="0 0 24 24" fill="none" xmlns="http://www.w3.org/2000/svg">
<g id="ic-presentation-screen">
<path id="Icon" fill-rule="evenodd" clip-rule="evenodd" d="M1.5 2.25C1.5 1.83579 1.83579 1.5 2.25 1.5H21.75C22.1642 1.5 22.5 1.83579 22.5 2.25C22.5 2.66421 22.1642 3 21.75 3H2.25C1.83579 3 1.5 2.66421 1.5 2.25ZM9.12596 22.166C8.8962 21.8214 8.98933 21.3557 9.33397 21.126L11.25 19.8486V16.5H4.5C3.25736 16.5 2.25 15.4926 2.25 14.25V4.5H3.75V14.25C3.75 14.6642 4.08579 15 4.5 15H19.5C19.9142 15 20.25 14.6642 20.25 14.25V4.5H21.75V14.25C21.75 15.4926 20.7426 16.5 19.5 16.5H12.75V19.8486L14.666 21.126C15.0107 21.3557 15.1038 21.8214 14.874 22.166C14.6443 22.5107 14.1786 22.6038 13.834 22.374L12 21.1514L10.166 22.374C9.82138 22.6038 9.35573 22.5107 9.12596 22.166Z" fill="#0F0F0F"/>
</g>
</svg>

<svg xmlns="http://www.w3.org/2000/svg" width="24" height="24" viewBox="0 0 24 24">
  <g class="ic-presentation-screen">
    <path fill-rule="evenodd" d="M1.5 2.25a.75.75 0 0 1 .75-.75h19.5a.75.75 0 0 1 0 1.5H2.25a.75.75 0 0 1-.75-.75Zm7.626 19.916a.75.75 0 0 1 .208-1.04l1.916-1.277V16.5H4.5a2.25 2.25 0 0 1-2.25-2.25V4.5h1.5v9.75c0 .414.336.75.75.75h15a.75.75 0 0 0 .75-.75V4.5h1.5v9.75a2.25 2.25 0 0 1-2.25 2.25h-6.75v3.349l1.916 1.277a.75.75 0 1 1-.832 1.248L12 21.151l-1.834 1.223a.75.75 0 0 1-1.04-.208Z" class="Icon"/>
  </g>
</svg>
